icons/src/scalable/default/devices/network-server-symbolic.svg

<?xml version="1.0" encoding="UTF-8" standalone="no"?>
<svg
   xmlns:dc="http://purl.org/dc/elements/1.1/"
   xmlns:cc="http://creativecommons.org/ns#"
   xmlns:rdf="http://www.w3.org/1999/02/22-rdf-syntax-ns#"
   xmlns:svg="http://www.w3.org/2000/svg"
   xmlns="http://www.w3.org/2000/svg"
   xmlns:sodipodi="http://sodipodi.sourceforge.net/DTD/sodipodi-0.dtd"
   xmlns:inkscape="http://www.inkscape.org/namespaces/inkscape"
   viewBox="0 0 16 16"
   version="1.1"
   id="svg6"
   sodipodi:docname="network-server-symbolic.svg"
   inkscape:version="0.92.1 r15371">
  <metadata
     id="metadata10">
    <rdf:RDF>
      <cc:Work
         rdf:about="">
        <dc:format>image/svg+xml</dc:format>
        <dc:type
           rdf:resource="http://purl.org/dc/dcmitype/StillImage" />
      </cc:Work>
    </rdf:RDF>
  </metadata>
  <sodipodi:namedview
     pagecolor="#ffffff"
     bordercolor="#666666"
     borderopacity="1"
     objecttolerance="10"
     gridtolerance="10"
     guidetolerance="10"
     inkscape:pageopacity="0"
     inkscape:pageshadow="2"
     inkscape:window-width="1600"
     inkscape:window-height="840"
     id="namedview8"
     showgrid="false"
     inkscape:zoom="14.75"
     inkscape:cx="-3.7288136"
     inkscape:cy="8"
     inkscape:window-x="0"
     inkscape:window-y="32"
     inkscape:window-maximized="1"
     inkscape:current-layer="svg6" />
  <defs
     id="defs3051">
    <style
       type="text/css"
       id="current-color-scheme">
      .ColorScheme-Text {
        color:#4d4d4d;
      }
      </style>
  </defs>
  <path
     style="color:#4d4d4d;fill:#bebebe;fill-opacity:1;stroke:none;stroke-width:0.75"
     class="ColorScheme-Text"
     d="M 3.6363631,2 A 0.54545455,0.54545455 0 0 0 3.0909086,2.5454545 V 4.727273 A 0.54545455,0.54545455 0 0 0 3.6363631,5.272727 H 12.363636 A 0.54545455,0.54545455 0 0 0 12.909091,4.727273 V 2.5454545 A 0.54545455,0.54545455 0 0 0 12.363636,2 Z M 4.1818177,3.0909091 H 5.2727268 V 4.1818182 H 4.1818177 Z m 2.1818182,0 H 6.9090904 V 4.1818182 H 6.3636359 Z M 3.6363631,6.3636365 A 0.54545455,0.54545455 0 0 0 3.0909086,6.9090913 V 9.090909 A 0.54545455,0.54545455 0 0 0 3.6363631,9.636364 H 12.363636 A 0.54545455,0.54545455 0 0 0 12.909091,9.090909 V 6.9090913 A 0.54545455,0.54545455 0 0 0 12.363636,6.3636365 Z M 4.1818177,7.4545453 H 5.2727268 V 8.545455 H 4.1818177 Z m 2.1818182,0 H 6.9090904 V 8.545455 H 6.3636359 Z M 3.6363631,10.727273 a 0.54545455,0.54545455 0 0 0 -0.5454545,0.545454 v 2.181818 A 0.54545455,0.54545455 0 0 0 3.6363631,14 h 8.7272729 a 0.54545455,0.54545455 0 0 0 0.545455,-0.545455 v -2.181818 a 0.54545455,0.54545455 0 0 0 -0.545455,-0.545454 z m 0.5454546,1.090909 h 1.0909091 v 1.090909 H 4.1818177 Z m 2.1818182,0 h 0.5454545 v 1.090909 H 6.3636359 Z"
     id="path4"
     inkscape:connector-curvature="0" />
</svg>

<svg version="1.1" viewBox="0 0 16 16" xmlns="http://www.w3.org/2000/svg">
 <path d="m3.6364 2a0.54545 0.54545 0 0 0-0.54545 0.54545v2.1818a0.54545 0.54545 0 0 0 0.54545 0.54545h8.7273a0.54545 0.54545 0 0 0 0.54546-0.54545v-2.1818a0.54545 0.54545 0 0 0-0.54546-0.54545zm0.54545 1.0909h1.0909v1.0909h-1.0909zm2.1818 0h0.54545v1.0909h-0.54545zm-2.7273 3.2727a0.54545 0.54545 0 0 0-0.54545 0.54545v2.1818a0.54545 0.54545 0 0 0 0.54545 0.54546h8.7273a0.54545 0.54545 0 0 0 0.54546-0.54546v-2.1818a0.54545 0.54545 0 0 0-0.54546-0.54545zm0.54545 1.0909h1.0909v1.0909h-1.0909zm2.1818 0h0.54545v1.0909h-0.54545zm-2.7273 3.2727a0.54545 0.54545 0 0 0-0.54545 0.54545v2.1818a0.54545 0.54545 0 0 0 0.54545 0.54546h8.7273a0.54545 0.54545 0 0 0 0.54546-0.54546v-2.1818a0.54545 0.54545 0 0 0-0.54546-0.54545zm0.54545 1.0909h1.0909v1.0909h-1.0909zm2.1818 0h0.54545v1.0909h-0.54545z" fill="#bebebe"/>
</svg>
